X:149
T: O SCHIPMANN O SCHIPMANN
N: E0078B
O: Europa, Mitteleuropa, Deutschland, Westfalen
R: erzaehlendes Volks - Lied, Sage, Liebe
M: 2/4
L: 1/16
K: F
d4 | c2F2d4 | c2F2z2
FA | c3dc2B2 | A3GF2
F2 | E2C2E2C2 | F3FF2
C2 | F3CF2F2 | F3Ac2
B2 | A4G4 | F2z2
d4 | c2F2d4 | c2F2z2
FA | c2cdc2B2 | A2GGF2
F2 | E2C2E2C2 | F4F2
FA | c2cdc2BB | A3GF2
F2 | E2C2E2C2 | F3FF2
FA | c3dc2B2 | A3GF2
F2 | E2C2E2C2 | F3FF2
C2 | F3CF2A2 | F3Ac2
B2 | A4G4 | F2z2
d4 | c2F2d4 | c2F2

